app/design/frontend/Smartosc/apollo/web/images/svg-icons/icons-payment/PickUpRed.svg

<?xml version="1.0" encoding="UTF-8"?>
<svg width="31px" height="31px" viewBox="0 0 31 31" version="1.1" xmlns="http://www.w3.org/2000/svg" xmlns:xlink="http://www.w3.org/1999/xlink">
    <!-- Generator: Sketch 59.1 (86144) - https://sketch.com -->
    <title>Group 22</title>
    <desc>Created with Sketch.</desc>
    <g id="Page-1" stroke="none" stroke-width="1" fill="none" fill-rule="evenodd">
        <g id="Artboard" transform="translate(-777.000000, -365.000000)">
            <g id="Group-22" transform="translate(777.000000, 365.000000)">
                <circle id="Oval-Copy-4" fill="#F11A1A" cx="15.5" cy="15.5" r="15.5"></circle>
                <g id="noun_Store_840490" transform="translate(7.000000, 7.000000)" fill="#FFFFFF" fill-rule="nonzero">
                    <path d="M17,15.120561 C17,15.6062617 16.6146851,16 16.139375,16 L0.860625,16 C0.385314937,16 0,15.6062617 0,15.120561 C0,14.6348602 0.385314937,14.2411219 0.860625,14.2411219 L1.8540625,14.2411219 L1.8540625,8.57724497 L1.94083333,8.58810224 C2.79348807,8.68114421 3.64910617,8.44204636 4.33677083,7.91857046 C5.31353596,8.66217045 6.60459022,8.8160402 7.72260417,8.32209907 L7.72260417,14.2411219 L13.4246875,14.2411219 L13.4246875,8.39809998 C13.7690038,8.50566777 14.1271401,8.55995264 14.4871875,8.55914951 C14.5792708,8.55914951 14.6642708,8.55914951 14.7634375,8.54829224 C14.8942002,8.53775308 15.024271,8.5196284 15.1530208,8.49400588 L15.1530208,14.2411219 L16.1464583,14.2411219 C16.6189999,14.2450963 17,14.6376729 17,15.120561 Z M11.5476042,11.211943 C11.4450372,11.2116553 11.3442246,11.2391263 11.2554167,11.291563 L9.3075,12.4424338 C9.11801427,12.5445048 8.99836313,12.7443312 8.99567901,12.9631983 C8.99299488,13.1820653 9.107708,13.3848929 9.29463108,13.4917841 C9.48155415,13.5986753 9.71072705,13.5924975 9.891875,13.4756842 L11.8397917,12.3248134 C12.0692436,12.1898448 12.1812316,11.9141061 12.1127307,11.6527788 C12.0442298,11.3914515 11.812356,11.2098322 11.5476042,11.2101331 L11.5476042,11.211943 Z M12.0540625,9.06039358 C11.976631,8.92306873 11.8489521,8.82283142 11.6991514,8.7817624 C11.5493507,8.74069338 11.3897176,8.76216183 11.2554167,8.84143859 L9.30572917,9.99049989 C9.11624344,10.0925709 8.99659229,10.2923973 8.99390817,10.5112643 C8.99122405,10.7301314 9.10593717,10.932959 9.29286024,11.0398501 C9.47978332,11.1467413 9.70895622,11.1405635 9.89010417,11.0237503 L11.8380208,9.87287944 C12.1170541,9.70944428 12.2143993,9.3463262 12.0558333,9.06039358 L12.0540625,9.06039358 Z M12.4454167,6.27188419 C12.496923,6.27151733 12.5447651,6.29905984 12.5711458,6.344266 C12.9809885,7.01997752 13.7039099,7.43076069 14.481875,7.42999321 C14.5409028,7.42999321 14.5999306,7.42999321 14.6589583,7.42999321 C16.1163542,7.31599186 16.9840625,5.7018774 16.3855208,4.3410993 L14.2038542,0.446957702 C14.0505505,0.173361987 13.7668425,0.00327221297 13.4583333,0 L3.33270833,0 C3.02102966,0 2.73322049,0.170575843 2.57833333,0.446957702 L0.400208333,4.33567066 C-0.1859375,5.67111513 0.633958333,7.27618186 2.05947917,7.41913594 C2.14008231,7.42759119 2.2210566,7.43181901 2.30208333,7.43180276 C3.08004848,7.43257024 3.80296983,7.02178707 4.2128125,6.34607555 C4.23897841,6.30106307 4.28642136,6.27347261 4.33765625,6.27347261 C4.38889114,6.27347261 4.43633409,6.30106307 4.4625,6.34607555 C4.86880122,7.0184438 5.58509539,7.42985353 6.35839895,7.43500147 C7.13170252,7.44014941 7.85318138,7.03831104 8.26802083,6.37140918 C8.29438701,6.32724965 8.34135609,6.30030909 8.39197917,6.30030909 C8.44260224,6.30030909 8.48957133,6.32724965 8.5159375,6.37140918 C8.93047428,7.03850303 9.65176714,7.44068054 10.4250692,7.43594246 C11.1983713,7.4311201 11.9148499,7.0200549 12.3214583,6.34788509 C12.3466244,6.30184123 12.393816,6.27290728 12.4454167,6.27188419 Z" id="Shape"></path>
                </g>
				<path d="M4.92995 5.81289C4.2925 5.17606 3.64085 4.52504 3.00341 3.88821L1.07687 5.81289C0.498024 6.3894 -0.375576 5.50246 0.187293 4.92416L2.11383 2.99949L0.187293 1.07481C-0.389781 0.49829 0.498024 -0.376242 1.07687 0.187857L3.00341 2.11254C3.64085 1.47571 4.2925 0.822913 4.92995 0.187857C5.50702 -0.390433 6.3824 0.49829 5.81775 1.07481L3.89299 2.99949L5.81775 4.92416C6.3824 5.48649 5.49282 6.37521 4.92995 5.81289" transform="translate(12 7)" id="Fill-1#1" fill="#F11A1A" stroke="none" />
            </g>
        </g>
    </g>
</svg>

<?xml version="1.0" encoding="utf-8"?>
<!-- Generator: Adobe Illustrator 16.0.0, SVG Export Plug-In . SVG Version: 6.00 Build 0)  -->
<!DOCTYPE svg PUBLIC "-//W3C//DTD SVG 1.1//EN" "http://www.w3.org/Graphics/SVG/1.1/DTD/svg11.dtd">
<svg version="1.1" id="Layer_1" xmlns="http://www.w3.org/2000/svg" xmlns:xlink="http://www.w3.org/1999/xlink" x="0px" y="0px"
	 width="31px" height="31px" viewBox="0 0 31 31" enable-background="new 0 0 31 31" xml:space="preserve">
<title>Group 22</title>
<desc>Created with Sketch.</desc>
<g id="Page-1">
	<g id="Artboard" transform="translate(-777.000000, -365.000000)">
		<g id="Group-22" transform="translate(777.000000, 365.000000)">
			<circle id="Oval-Copy-4" fill="#F11A1A" cx="15.5" cy="15.5" r="15.5"/>
			<g id="noun_Store_840490" transform="translate(7.000000, 7.000000)">
				<path id="Shape" fill="#FFFFFF" d="M17,15.121C17,15.606,16.615,16,16.139,16H0.861C0.385,16,0,15.606,0,15.121
					c0-0.486,0.385-0.88,0.861-0.88h0.993V8.577l0.087,0.011c0.853,0.093,1.708-0.146,2.396-0.669
					c0.977,0.744,2.268,0.897,3.386,0.404v5.919h5.702V8.398c0.345,0.108,0.702,0.162,1.063,0.161c0.092,0,0.177,0,0.276-0.011
					c0.131-0.011,0.261-0.029,0.389-0.054v5.747h0.994C16.619,14.245,17,14.638,17,15.121z M11.547,11.212
					c-0.102-0.001-0.203,0.027-0.291,0.079l-1.948,1.151c-0.189,0.103-0.309,0.302-0.312,0.521
					c-0.002,0.219,0.112,0.422,0.299,0.529c0.187,0.106,0.416,0.1,0.598-0.017l1.947-1.151c0.229-0.135,0.342-0.41,0.273-0.672
					c-0.068-0.261-0.301-0.442-0.566-0.442V11.212z M12.055,9.061c-0.078-0.137-0.205-0.238-0.355-0.279s-0.31-0.02-0.443,0.06
					L9.306,9.99c-0.189,0.103-0.309,0.303-0.312,0.521c-0.003,0.219,0.111,0.422,0.299,0.528s0.416,0.101,0.598-0.017l1.947-1.15
					C12.117,9.709,12.215,9.346,12.055,9.061L12.055,9.061z M12.445,6.272c0.052,0,0.1,0.027,0.126,0.072
					c0.409,0.676,1.133,1.086,1.911,1.086c0.059,0,0.117,0,0.177,0c1.457-0.114,2.325-1.729,1.727-3.089l-2.183-3.895
					C14.051,0.173,13.767,0.003,13.459,0H3.333C3.021,0,2.733,0.17,2.578,0.447L0.4,4.335C-0.186,5.671,0.634,7.276,2.06,7.419
					C2.14,7.428,2.221,7.432,2.302,7.432c0.778,0.001,1.5-0.41,1.911-1.085c0.026-0.045,0.074-0.073,0.125-0.073
					c0.051,0,0.099,0.028,0.125,0.073C4.869,7.019,5.585,7.43,6.358,7.435c0.773,0.005,1.495-0.396,1.91-1.063
					C8.294,6.327,8.341,6.3,8.392,6.3c0.05,0,0.098,0.027,0.124,0.071c0.415,0.667,1.136,1.069,1.91,1.064
					c0.772-0.005,1.489-0.416,1.896-1.088C12.347,6.302,12.395,6.273,12.445,6.272z"/>
			</g>
		</g>
	</g>
</g>
<path id="Fill-1-Copy-3" fill="#F11A1A" d="M17.445,13.488c-0.637-0.637-1.289-1.287-1.926-1.924l-1.928,1.924
	c-0.578,0.576-1.451-0.311-0.889-0.889l1.926-1.924L12.703,8.75c-0.577-0.576,0.311-1.451,0.889-0.887l1.928,1.925
	c0.637-0.637,1.29-1.29,1.926-1.925c0.577-0.579,1.453,0.311,0.889,0.887l-1.926,1.925l1.926,1.924
	C18.898,13.162,18.008,14.05,17.445,13.488"/>
</svg>
